; generated by PrusaSlicer 2.9.3 on 2025-11-06 at 01:01:25 UTC


;
;
; 

; external perimeters extrusion width = 0.60mm
; perimeters extrusion width = 0.50mm
; infill extrusion width = 0.50mm
; solid infill extrusion width = 0.50mm
; top infill extrusion width = 0.45mm
; first layer extrusion width = 0.42mm

M73 P0 R2
M73 Q0 S2
M201 X1000 Y1000 Z200 E5000 ; sets maximum accelerations, mm/sec^2
M203 X200 Y200 Z12 E120 ; sets maximum feedrates, mm / sec
M204 S1250 T1250 ; sets acceleration (S) and retract acceleration (R), mm/sec^2
M205 X8.00 Y8.00 Z0.40 E4.50 ; sets the jerk limits, mm/sec
M205 S0 T0 ; sets the minimum extruding and travel feed rate, mm/sec

; printing object test-cylinder-radius_10mm-height_1.5mm.stl id:0 copy 0
; stop printing object test-cylinder-radius_10mm-height_1.5mm.stl id:0 copy 0

;TYPE:Custom
M862.3 P "MK3S" ; printer model check
M862.1 P0.4 ; nozzle diameter check
M115 U3.14.1 ; tell printer latest fw version
G90 ; use absolute coordinates
M83 ; extruder relative mode
M104 S215 ; set extruder temp
M140 S60 ; set bed temp
M190 S60 ; wait for bed temp
M109 S215 ; wait for extruder temp
G28 W ; home all without mesh bed level
G80 X112.257 Y92.2571 W25.4859 H25.4859 ; mesh bed levelling

G1 Z0.2 F720
G1 Y-3 F1000 ; go outside print area
G92 E0
G1 X60 E9 F1000 ; intro line
G1 X100 E12.5 F1000 ; intro line
M73 P2 R2
M73 Q2 S2

G92 E0
M221 S95

; Don't change E values below. Excessive value can damage the printer.

M907 E538 ; set extruder motor current
G21 ; set units to millimeters
G90 ; use absolute coordinates
M83 ; use relative distances for extrusion

M900 K0.05 ; Filament gcode LA 1.5
M900 K30 ; Filament gcode LA 1.0




M107
;LAYER_CHANGE
;Z:0.2
;HEIGHT:0.2
G1 E-.8 F2100
M73 P4 R2
M73 Q4 S2
G1 Z.6 F720
G1 X114.729 Y97.78 F10800
G1 Z.2 F720
M73 Q5 S2
G1 E.8 F2100
M204 S800
;TYPE:Skirt/Brim
;WIDTH:0.42
G1 F1200
G1 X116.403 Y95.85 E.08011
G1 X118.427 Y94.302 E.07989
M73 P5 R2
G1 X120.666 Y93.216 E.07802
G1 X122.972 Y92.607 E.07478
G1 X125.246 Y92.446 E.07148
G1 X127.647 Y92.726 E.07579
G1 X130.008 Y93.487 E.07778
G1 X132.22 Y94.729 E.07954
G1 X134.15 Y96.403 E.08011
G1 X135.698 Y98.427 E.07989
G1 X136.784 Y100.666 E.07802
M73 Q6 S2
G1 X137.393 Y102.972 E.07478
G1 X137.554 Y105.246 E.07148
G1 X137.274 Y107.647 E.07579
M73 P6 R2
G1 X136.513 Y110.008 E.07778
G1 X135.271 Y112.22 E.07954
G1 X133.597 Y114.15 E.08011
G1 X131.573 Y115.698 E.07989
G1 X129.334 Y116.784 E.07802
G1 X127.028 Y117.393 E.07478
G1 X124.754 Y117.554 E.07148
G1 X122.353 Y117.274 E.07579
G1 X119.992 Y116.513 E.07778
M73 Q7 S2
G1 X117.78 Y115.271 E.07954
G1 X115.85 Y113.597 E.08011
G1 X114.302 Y111.573 E.07989
M73 P7 R2
G1 X113.216 Y109.334 E.07802
G1 X112.607 Y107.028 E.07478
G1 X112.446 Y104.754 E.07148
G1 X112.726 Y102.353 E.07579
G1 X113.487 Y99.992 E.07778
G1 X114.7 Y97.832 E.07767
M204 S1000
G1 X115.019 Y98.021 F10800
M204 S800
G1 F1200
G1 X116.639 Y96.145 E.07772
G1 X118.598 Y94.638 E.07749
G1 X120.768 Y93.578 E.07572
M73 Q8 S2
G1 X123.006 Y92.983 E.07261
G1 X125.21 Y92.822 E.06929
G1 X127.538 Y93.088 E.07347
M73 P8 R2
G1 X129.831 Y93.82 E.07547
G1 X131.979 Y95.019 E.07713
G1 X133.855 Y96.639 E.07772
G1 X135.362 Y98.598 E.07749
G1 X136.422 Y100.769 E.07575
G1 X137.017 Y103.006 E.07258
G1 X137.178 Y105.21 E.06929
G1 X136.912 Y107.538 E.07347
G1 X136.18 Y109.831 E.07547
M73 Q9 S2
G1 X134.981 Y111.979 E.07713
G1 X133.361 Y113.855 E.07772
G1 X131.402 Y115.362 E.07749
M73 P9 R2
G1 X129.231 Y116.422 E.07575
G1 X126.994 Y117.017 E.07258
G1 X124.79 Y117.178 E.06929
G1 X122.462 Y116.912 E.07347
G1 X120.169 Y116.18 E.07547
G1 X118.021 Y114.981 E.07713
G1 X116.145 Y113.361 E.07772
G1 X114.638 Y111.402 E.07749
G1 X113.578 Y109.232 E.07572
M73 Q10 S2
G1 X112.983 Y106.994 E.07261
G1 X112.822 Y104.79 E.06929
G1 X113.088 Y102.462 E.07347
M73 P10 R2
G1 X113.82 Y100.169 E.07547
G1 X114.99 Y98.073 E.07526
M204 S1000
;WIPE_START
G1 F8640
G1 X115.019 Y98.021 E-.01375
G1 X116.639 Y96.145 E-.57233
G1 X117.373 Y95.58 E-.21392
;WIPE_END
G1 Z.6 F720
; printing object test-cylinder-radius_10mm-height_1.5mm.stl id:0 copy 0
G1 X126.708 Y95.955 F10800
G1 Z.2 F720
G1 E.8 F2100
M204 S800
;TYPE:Perimeter
;WIDTH:0.419999
G1 F1200
G1 X126.758 Y95.96 E.00158
G1 X128.498 Y96.481 E.05695
G1 X130.138 Y97.358 E.05831
G1 X131.579 Y98.557 E.05878
G1 X132.747 Y100.021 E.05872
M73 Q11 S2
G1 X133.58 Y101.654 E.05748
G1 X134.06 Y103.348 E.05521
G1 X134.135 Y104.172 E.02594
G1 X134.209 Y104.998 E.026
G1 X134.04 Y106.758 E.05544
M73 P11 R2
G1 X133.519 Y108.498 E.05695
G1 X132.642 Y110.138 E.05831
G1 X131.443 Y111.579 E.05878
G1 X129.979 Y112.747 E.05872
G1 X128.346 Y113.58 E.05748
G1 X126.652 Y114.06 E.05521
G1 X125.002 Y114.209 E.05195
G1 X123.242 Y114.04 E.05544
G1 X121.502 Y113.519 E.05695
G1 X119.862 Y112.642 E.05831
G1 X118.421 Y111.443 E.05878
G1 X117.253 Y109.979 E.05872
G1 X116.42 Y108.346 E.05748
M73 Q12 S2
G1 X115.94 Y106.652 E.05521
G1 X115.791 Y105.002 E.05195
G1 X115.96 Y103.242 E.05544
M73 P12 R2
G1 X116.481 Y101.502 E.05695
G1 X117.358 Y99.862 E.05831
G1 X118.557 Y98.421 E.05878
G1 X120.021 Y97.253 E.05872
G1 X121.654 Y96.42 E.05748
G1 X123.348 Y95.94 E.05521
G1 X124.998 Y95.791 E.05195
G1 X126.648 Y95.95 E.05197
M204 S1000
G1 X126.744 Y95.58 F10800
M204 S800
;TYPE:External perimeter
G1 F1200
G1 X126.831 Y95.588 E.00274
G1 X128.642 Y96.131 E.05928
G1 X130.349 Y97.043 E.06068
G1 X131.85 Y98.291 E.06121
G1 X133.066 Y99.816 E.06116
M73 Q13 S2
G1 X133.933 Y101.516 E.05983
G1 X134.432 Y103.279 E.05745
G1 X134.51 Y104.138 E.02704
G1 X134.588 Y104.999 E.02711
M73 P13 R2
G1 X134.412 Y106.831 E.05771
G1 X133.869 Y108.642 E.05928
G1 X132.957 Y110.349 E.06068
G1 X131.709 Y111.85 E.06121
G1 X130.184 Y113.066 E.06116
G1 X128.484 Y113.933 E.05983
G1 X126.721 Y114.432 E.05745
G1 X125.001 Y114.588 E.05415
G1 X123.169 Y114.412 E.05771
G1 X121.358 Y113.869 E.05928
G1 X119.651 Y112.957 E.06068
G1 X118.15 Y111.709 E.06121
G1 X116.934 Y110.184 E.06116
M73 Q14 S2
G1 X116.067 Y108.484 E.05983
G1 X115.568 Y106.721 E.05745
G1 X115.412 Y105.001 E.05415
M73 P14 R2
G1 X115.588 Y103.169 E.05771
G1 X116.131 Y101.358 E.05928
G1 X117.043 Y99.651 E.06068
G1 X118.291 Y98.15 E.06121
G1 X119.816 Y96.934 E.06116
G1 X121.516 Y96.067 E.05983
G1 X123.279 Y95.568 E.05745
G1 X124.999 Y95.412 E.05415
G1 X126.684 Y95.574 E.05308
M204 S1000
;WIPE_START
G1 F8640
G1 X126.744 Y95.58 E-.01392
G1 X126.831 Y95.588 E-.02017
G1 X128.642 Y96.131 E-.43656
G1 X129.9 Y96.803 E-.32935
;WIPE_END
G1 Z.6 F720
G1 X133.123 Y101.09 F10800
G1 Z.2 F720
M73 Q15 S2
G1 E.8 F2100
M204 S800
;TYPE:Solid infill
;WIDTH:0.421072
G1 F1200
G1 X129.313 Y97.28 E.16942
G1 X128.375 Y96.779 E.03344
M73 P15 R2
G1 X128.235 Y96.737 E.0046
G1 X133.284 Y101.786 E.22452
G1 X133.496 Y102.533 E.02442
G1 X127.471 Y96.508 E.26792
G1 X126.708 Y96.28 E.02504
G1 X133.707 Y103.279 E.31123
G1 X133.744 Y103.406 E.00416
M73 P16 R2
M73 Q16 S2
G1 X133.788 Y103.894 E.01541
G1 X126.114 Y96.22 E.34125
G1 X125.522 Y96.163 E.0187
G1 X133.841 Y104.482 E.36993
G1 X133.882 Y105.058 E.01816
M73 Q17 S2
G1 X124.941 Y96.117 E.39759
G1 X124.451 Y96.162 E.01547
M73 P17 R2
G1 X133.835 Y105.546 E.41729
G1 X133.788 Y106.033 E.01538
M73 Q18 S2
G1 X123.961 Y96.206 E.43698
G1 X123.47 Y96.251 E.0155
M73 P18 R1
M73 Q18 S1
G1 X133.741 Y106.521 E.45671
G1 X133.724 Y106.696 E.00553
M73 Q19 S1
G1 X133.645 Y106.96 E.00866
G1 X123.044 Y96.359 E.4714
G1 X122.627 Y96.477 E.01363
M73 P19 R1
G1 X133.522 Y107.372 E.48448
G1 X133.398 Y107.783 E.0135
M73 P20 R1
M73 Q20 S1
G1 X122.211 Y96.595 E.49748
G1 X121.794 Y96.714 E.01364
G1 X133.275 Y108.195 E.51053
G1 X133.221 Y108.375 E.00591
M73 P21 R1
M73 Q21 S1
G1 X133.116 Y108.571 E.00699
G1 X121.437 Y96.891 E.51936
G1 X121.082 Y97.072 E.01253
G1 X132.93 Y108.919 E.52683
G1 X132.744 Y109.268 E.01243
M73 P22 R1
M73 Q22 S1
G1 X120.728 Y97.252 E.53432
G1 X120.374 Y97.433 E.0125
M73 Q23 S1
G1 X132.558 Y109.616 E.54177
G1 X132.37 Y109.964 E.01244
M73 P23 R1
G1 X120.048 Y97.642 E.54793
G1 X119.751 Y97.879 E.01195
M73 P24 R1
M73 Q24 S1
G1 X132.127 Y110.256 E.55036
G1 X131.885 Y110.548 E.01192
G1 X119.453 Y98.116 E.55282
M73 Q25 S1
G1 X119.155 Y98.353 E.01197
M73 P25 R1
G1 X131.642 Y110.84 E.55527
G1 X131.399 Y111.132 E.01194
M73 P26 R1
M73 Q26 S1
G1 X118.858 Y98.591 E.55767
G1 X118.782 Y98.651 E.00304
G1 X118.601 Y98.869 E.00891
G1 X131.142 Y111.409 E.55765
G1 X130.845 Y111.647 E.01197
M73 P27 R1
M73 Q27 S1
G1 X118.358 Y99.16 E.55527
G1 X118.115 Y99.452 E.01194
M73 Q28 S1
G1 X130.547 Y111.884 E.55282
G1 X130.249 Y112.121 E.01197
M73 P28 R1
G1 X117.873 Y99.744 E.55036
G1 X117.63 Y100.036 E.01194
M73 P29 R1
M73 Q29 S1
G1 X129.952 Y112.358 E.54793
G1 X129.804 Y112.476 E.00595
G1 X129.626 Y112.567 E.00629
G1 X117.442 Y100.384 E.54177
G1 X117.256 Y100.732 E.01241
M73 P30 R1
M73 Q30 S1
G1 X129.272 Y112.748 E.53432
G1 X128.917 Y112.928 E.01252
M73 Q31 S1
G1 X117.07 Y101.081 E.52681
M73 P31 R1
G1 X116.884 Y101.429 E.01241
G1 X128.563 Y113.109 E.51936
G1 X128.206 Y113.286 E.01253
M73 P32 R1
M73 Q32 S1
G1 X116.725 Y101.805 E.51053
G1 X116.602 Y102.217 E.01352
G1 X127.789 Y113.405 E.49748
G1 X127.373 Y113.523 E.0136
M73 P33 R1
M73 Q33 S1
G1 X116.478 Y102.629 E.48445
G1 X116.355 Y103.04 E.01349
M73 Q34 S1
G1 X126.956 Y113.641 E.4714
G1 X126.53 Y113.749 E.01382
M73 P34 R1
G1 X116.259 Y103.479 E.45671
G1 X116.212 Y103.967 E.01542
M73 Q35 S1
G1 X126.039 Y113.794 E.43698
G1 X125.549 Y113.838 E.01547
M73 P35 R1
G1 X116.165 Y104.455 E.41726
G1 X116.118 Y104.942 E.01538
M73 Q36 S1
G1 X125.059 Y113.883 E.39759
G1 X124.478 Y113.837 E.01833
M73 P36 R1
G1 X116.159 Y105.518 E.36993
G1 X116.212 Y106.106 E.01856
G1 X123.886 Y113.78 E.34125
G1 X123.292 Y113.72 E.01877
M73 P37 R1
M73 Q37 S1
G1 X116.293 Y106.721 E.31123
G1 X116.504 Y107.467 E.02438
G1 X122.528 Y113.492 E.2679
G1 X121.765 Y113.263 E.02505
M73 Q38 S1
G1 X116.716 Y108.214 E.22452
G1 X117.266 Y109.299 E.03825
M73 P38 R1
G1 X121.1 Y113.133 E.17049
M204 S1000
M106 S84.15
;LAYER_CHANGE
;Z:0.5
;HEIGHT:0.3
;BEFORE_LAYER_CHANGE
G92 E0.0
;0.5


;WIPE_START
G1 F8640
G1 X118.65 Y110.683 E-.8
;WIPE_END
G1 Z.5 F720
;AFTER_LAYER_CHANGE
;0.5
M104 S210 ; set temperature
; stop printing object test-cylinder-radius_10mm-height_1.5mm.stl id:0 copy 0
G1 Z.9
G1 X119.392 Y116.176 F10800
G1 Z.5 F720
G1 E.8 F2100
;TYPE:Skirt/Brim
;WIDTH:0.42
G1 F2700
G1 X117.78 Y115.271 E.082
G1 X115.85 Y113.597 E.11332
G1 X114.302 Y111.573 E.11302
G1 X113.216 Y109.334 E.11038
G1 X112.607 Y107.028 E.10579
M73 Q39 S1
G1 X112.446 Y104.754 E.10112
G1 X112.726 Y102.353 E.10722
G1 X113.487 Y99.992 E.11003
G1 X114.729 Y97.78 E.11252
M73 P39 R1
G1 X116.403 Y95.85 E.11332
G1 X118.427 Y94.302 E.11302
G1 X120.666 Y93.216 E.11038
G1 X122.972 Y92.607 E.10579
G1 X125.246 Y92.446 E.10112
G1 X127.647 Y92.726 E.10722
G1 X130.008 Y93.487 E.11003
G1 X132.22 Y94.729 E.11252
G1 X134.15 Y96.403 E.11332
G1 X135.698 Y98.427 E.11302
G1 X136.784 Y100.666 E.11038
G1 X137.393 Y102.972 E.10579
G1 X137.554 Y105.246 E.10112
G1 X137.274 Y107.647 E.10722
G1 X136.513 Y110.008 E.11003
G1 X135.271 Y112.22 E.11252
G1 X133.597 Y114.15 E.11332
G1 X131.573 Y115.698 E.11302
G1 X129.334 Y116.784 E.11038
G1 X127.028 Y117.393 E.10579
G1 X124.754 Y117.554 E.10112
G1 X122.353 Y117.274 E.10722
G1 X119.992 Y116.513 E.11003
M73 Q40 S1
G1 X119.444 Y116.205 E.02788
G1 X119.627 Y115.878 F10800
G1 F2700
G1 X118.021 Y114.981 E.08159
G1 X116.145 Y113.361 E.10994
G1 X114.638 Y111.402 E.10963
M73 P40 R1
G1 X113.578 Y109.232 E.10712
G1 X112.983 Y106.994 E.10271
G1 X112.822 Y104.79 E.09802
G1 X113.088 Y102.462 E.10393
G1 X113.82 Y100.169 E.10676
G1 X115.019 Y98.021 E.10911
G1 X116.639 Y96.145 E.10994
G1 X118.598 Y94.638 E.10963
G1 X120.768 Y93.578 E.10712
G1 X123.006 Y92.983 E.10271
G1 X125.21 Y92.822 E.09802
G1 X127.538 Y93.088 E.10393
G1 X129.831 Y93.82 E.10676
G1 X131.979 Y95.019 E.10911
G1 X133.855 Y96.639 E.10994
G1 X135.362 Y98.598 E.10963
G1 X136.422 Y100.769 E.10716
G1 X137.017 Y103.006 E.10267
G1 X137.178 Y105.21 E.09802
G1 X136.912 Y107.538 E.10393
G1 X136.18 Y109.831 E.10676
G1 X134.981 Y111.979 E.10911
G1 X133.361 Y113.855 E.10994
M73 Q41 S1
G1 X131.402 Y115.362 E.10963
G1 X129.231 Y116.422 E.10716
G1 X126.994 Y117.017 E.10267
G1 X124.79 Y117.178 E.09802
M73 P41 R1
G1 X122.462 Y116.912 E.10393
G1 X120.169 Y116.18 E.10676
G1 X119.679 Y115.907 E.02488
;WIPE_START
G1 F8640
G1 X119.627 Y115.878 E-.01375
G1 X118.021 Y114.981 E-.42475
G1 X116.836 Y113.958 E-.3615
;WIPE_END
G1 Z.9 F720
; printing object test-cylinder-radius_10mm-height_1.5mm.stl id:0 copy 0
G1 X126.708 Y95.954 F10800
G1 Z.5 F720
G1 E.8 F2100
M204 S800
;TYPE:Perimeter
;WIDTH:0.5
G1 F3000
G1 X126.759 Y95.959 E.00278
G1 X128.498 Y96.48 E.09863
G1 X130.139 Y97.356 E.10107
G1 X131.58 Y98.556 E.10189
G1 X132.748 Y100.02 E.10176
G1 X133.581 Y101.654 E.09965
G1 X134.062 Y103.348 E.09568
G1 X134.211 Y104.998 E.09001
G1 X134.041 Y106.759 E.09612
G1 X133.52 Y108.498 E.09863
G1 X132.644 Y110.139 E.10107
G1 X131.444 Y111.58 E.10189
G1 X129.98 Y112.748 E.10176
G1 X128.346 Y113.581 E.09965
M73 Q42 S1
G1 X126.652 Y114.062 E.09568
G1 X125.002 Y114.211 E.09001
G1 X123.241 Y114.041 E.09612
G1 X121.502 Y113.52 E.09863
G1 X119.861 Y112.644 E.10107
G1 X118.42 Y111.444 E.10189
G1 X117.252 Y109.98 E.10176
M73 P42 R1
G1 X116.419 Y108.346 E.09965
G1 X115.938 Y106.652 E.09568
G1 X115.789 Y105.002 E.09001
G1 X115.959 Y103.241 E.09612
G1 X116.48 Y101.502 E.09863
G1 X117.356 Y99.861 E.10107
G1 X118.556 Y98.42 E.10189
G1 X120.02 Y97.252 E.10176
G1 X121.654 Y96.419 E.09965
G1 X123.348 Y95.938 E.09568
G1 X124.998 Y95.789 E.09001
G1 X126.648 Y95.948 E.09006
M204 S1000
G1 X126.754 Y95.471 F10800
M204 S800
;TYPE:External perimeter
;WIDTH:0.6
G1 F2099.997
G1 X126.853 Y95.48 E.00664
G1 X128.684 Y96.029 E.1277
G1 X130.411 Y96.951 E.13079
G1 X131.929 Y98.214 E.13192
G1 X133.159 Y99.756 E.13177
G1 X134.036 Y101.476 E.12898
G1 X134.541 Y103.259 E.1238
G1 X134.699 Y104.999 E.11672
G1 X134.52 Y106.853 E.12443
G1 X133.971 Y108.684 E.1277
G1 X133.049 Y110.411 E.13079
G1 X131.786 Y111.929 E.13192
G1 X130.244 Y113.159 E.13177
G1 X128.524 Y114.036 E.12898
G1 X126.741 Y114.541 E.1238
M73 Q43 S1
G1 X125.001 Y114.699 E.11672
G1 X123.147 Y114.52 E.12443
G1 X121.316 Y113.971 E.1277
G1 X119.589 Y113.049 E.13079
M73 P43 R1
G1 X118.071 Y111.786 E.13192
G1 X116.841 Y110.244 E.13177
G1 X115.964 Y108.524 E.12898
G1 X115.459 Y106.741 E.1238
G1 X115.301 Y105.001 E.11672
G1 X115.48 Y103.147 E.12443
G1 X116.029 Y101.316 E.1277
G1 X116.951 Y99.589 E.13079
G1 X118.214 Y98.071 E.13192
G1 X119.756 Y96.841 E.13177
G1 X121.476 Y95.964 E.12898
G1 X123.259 Y95.459 E.1238
G1 X124.999 Y95.301 E.11672
G1 X126.695 Y95.465 E.11383
M204 S1000
;WIPE_START
G1 F8640
G1 X126.754 Y95.471 E-.01369
G1 X126.853 Y95.48 E-.02295
G1 X128.684 Y96.029 E-.44138
G1 X129.914 Y96.686 E-.32198
;WIPE_END
G1 Z.9 F720
G1 X120.266 Y97.542 F10800
G1 Z.5 F720
G1 E.8 F2100
M73 Q44 S1
;TYPE:Solid infill
;WIDTH:0.5
G1 F4800
G1 X117.58 Y100.228 E.20639
G1 X117.481 Y100.397 E.01064
;WIDTH:0.45219
G1 X117.382 Y100.566 E.00947
;WIDTH:0.404381
G1 X117.341 Y100.577 E.0018
G1 X117.322 Y100.506 E.00312
G1 X117.393 Y100.525 E.00312
M73 P44 R1
;WIPE_START
G1 F8640
G1 X117.322 Y100.506 E-.01697
G1 X117.341 Y100.577 E-.01697
G1 X117.382 Y100.566 E-.0098
G1 X117.481 Y100.397 E-.04523
G1 X117.58 Y100.228 E-.04523
G1 X119.619 Y98.189 E-.6658
;WIPE_END
G1 Z.9 F720
G1 X116.721 Y101.848 F10800
G1 Z.5 F720
G1 E.8 F2100
G1 F4800
G1 X116.65 Y101.829 E.00312
G1 X116.669 Y101.9 E.00312
G1 X116.71 Y101.889 E.0018
;WIDTH:0.45219
G1 X116.792 Y101.72 E.00909
;WIDTH:0.5
G1 X116.873 Y101.551 E.01018
G1 X121.523 Y96.901 E.3573
;WIPE_START
G1 F8640
G1 X119.073 Y99.351 E-.8
;WIPE_END
G1 Z.9 F720
G1 X122.814 Y96.38 F10800
G1 Z.5 F720
G1 E.8 F2100
;WIDTH:0.404381
G1 F4800
G1 X122.742 Y96.361 E.00316
G1 X122.762 Y96.432 E.00313
G1 X122.803 Y96.421 E.0018
;WIDTH:0.45219
G1 X122.635 Y96.497 E.00892
;WIDTH:0.5
G1 X122.467 Y96.573 E.01002
G1 X116.579 Y102.461 E.45242
G1 X116.504 Y102.63 E.01005
;WIDTH:0.45219
G1 X116.429 Y102.799 E.00894
;WIDTH:0.404381
G1 X116.388 Y102.81 E.0018
G1 X116.369 Y102.739 E.00312
G1 X116.44 Y102.758 E.00312
M73 Q45 S1
